icon-svg/pillar-tuar.svg

<svg xmlns="http://www.w3.org/2000/svg" fill="#44739e" viewBox="0 0 24 24"><path d="M15.293 2.244A15 15 0 0 0 11.878 2a16.1 16.1 0 0 0-3.415.244C7.976 2.488 7 2.732 7 3.22v6.1c0 .732.976.976 1.707.976h.244v11.216H9.2a6.186 6.186 0 0 0 2.922.488 12.24 12.24 0 0 0 2.927-.488h.244V10.537h.244A1.739 1.739 0 0 0 17 9.805V2.976c-.244-.488-.976-.488-1.707-.732m-6.342.732a11.87 11.87 0 0 1 2.927-.244 11.87 11.87 0 0 1 2.927.244c.488 0 .732.244 1.219.244a1.866 1.866 0 0 1-1.219.487c-.976 0-1.951.244-2.927.244a11.87 11.87 0 0 1-2.927-.244c-.488 0-.731-.244-1.219-.244a4.14 4.14 0 0 1 1.219-.487m7.317 6.585c-.488 0-.975.244-1.463.244a11.87 11.87 0 0 1-2.927.244 11.87 11.87 0 0 1-2.927-.244c-.488 0-.731-.244-1.219-.488v-.976c.244 0 .488.244.731.244a16.1 16.1 0 0 0 3.415.244 16.1 16.1 0 0 0 3.415-.244c.244 0 .487-.244.975-.244zm0-2.2a3.464 3.464 0 0 1-1.463.488c-.976 0-1.951.244-2.927.244a11.87 11.87 0 0 1-2.927-.244c-.488 0-.731-.244-1.219-.488V6.146c.244 0 .488.244.731.244a16.1 16.1 0 0 0 3.415.244 16.1 16.1 0 0 0 3.415-.244c.244 0 .487-.244.975-.244zm0-2.195a1.791 1.791 0 0 1-1.463.488 11.92 11.92 0 0 1-2.927.243 11.92 11.92 0 0 1-2.927-.243 1.86 1.86 0 0 1-1.219-.488V4.2c.244 0 .488.244.731.244a16.1 16.1 0 0 0 3.415.244 16.1 16.1 0 0 0 3.415-.244c.244 0 .487-.244.975-.244z"/></svg>

<?xml version="1.0" encoding="UTF-8"?>
<svg width="24px" height="24px" viewBox="0 0 24 24" version="1.1" fill="#44739e" xmlns="http://www.w3.org/2000/svg" xmlns:xlink="http://www.w3.org/1999/xlink">
            <path d="M 15.293,2.244 A 15,15 0 0 0 11.878,2 16.1,16.1 0 0 0 8.463,2.244 C 7.976,2.488 7,2.732 7,3.22 v 6.1 c 0,0.732 0.976,0.976 1.707,0.976 H 8.951 V 21.512 H 9.2 A 6.186,6.186 0 0 0 12.122,22 12.239,12.239 0 0 0 15.049,21.512 h 0.244 V 10.537 h 0.244 A 1.739,1.739 0 0 0 17,9.805 V 2.976 C 16.756,2.488 16.024,2.488 15.293,2.244 Z M 8.951,2.976 a 11.871,11.871 0 0 1 2.927,-0.244 11.871,11.871 0 0 1 2.927,0.244 c 0.488,0 0.732,0.244 1.219,0.244 a 1.866,1.866 0 0 1 -1.219,0.487 c -0.976,0 -1.951,0.244 -2.927,0.244 A 11.871,11.871 0 0 1 8.951,3.707 C 8.463,3.707 8.22,3.463 7.732,3.463 A 4.138,4.138 0 0 1 8.951,2.976 Z m 7.317,6.585 c -0.488,0 -0.975,0.244 -1.463,0.244 A 11.871,11.871 0 0 1 11.878,10.049 11.871,11.871 0 0 1 8.951,9.805 C 8.463,9.805 8.22,9.561 7.732,9.317 V 8.341 c 0.244,0 0.488,0.244 0.731,0.244 a 16.1,16.1 0 0 0 3.415,0.244 16.1,16.1 0 0 0 3.415,-0.244 c 0.244,0 0.487,-0.244 0.975,-0.244 z m 0,-2.2 a 3.464,3.464 0 0 1 -1.463,0.488 c -0.976,0 -1.951,0.244 -2.927,0.244 A 11.871,11.871 0 0 1 8.951,7.849 C 8.463,7.849 8.22,7.605 7.732,7.361 V 6.146 c 0.244,0 0.488,0.244 0.731,0.244 a 16.1,16.1 0 0 0 3.415,0.244 16.1,16.1 0 0 0 3.415,-0.244 c 0.244,0 0.487,-0.244 0.975,-0.244 z m 0,-2.195 A 1.791,1.791 0 0 1 14.805,5.654 11.919,11.919 0 0 1 11.878,5.897 11.919,11.919 0 0 1 8.951,5.654 1.861,1.861 0 0 1 7.732,5.166 V 4.2 c 0.244,0 0.488,0.244 0.731,0.244 a 16.1,16.1 0 0 0 3.415,0.244 16.1,16.1 0 0 0 3.415,-0.244 c 0.244,0 0.487,-0.244 0.975,-0.244 z"></path>

</svg>
